public/img/assets/icons/weather-conditions/fog.svg

<svg width="120" height="120" viewBox="0 0 120 120" fill="none" xmlns="http://www.w3.org/2000/svg">
<path d="M82.9375 46.8C82.8496 46.8 82.7764 46.8294 82.7031 46.8294C82.8643 46.0656 82.9375 45.2725 82.9375 44.45C82.9375 37.9581 77.6934 32.7 71.2188 32.7C67.6152 32.7 64.4365 34.3597 62.2832 36.93C59.5586 31.6425 54.124 28 47.7813 28C38.7139 28 31.375 35.3584 31.375 44.45C31.375 45.5222 31.4922 46.5503 31.6826 47.5638C26.0723 49.4144 22 54.6578 22 60.9C22 68.6844 28.2988 75 36.0625 75H82.9375C90.7012 75 97 68.6844 97 60.9C97 53.1156 90.7012 46.8 82.9375 46.8Z" fill="#3FD5FE"/>
<rect x="37" y="70" width="25" height="5" rx="2.5" fill="#3377FF"/>
<rect x="26" y="79" width="25" height="5" rx="2.5" fill="#6A9CFF"/>
<rect x="68" y="70" width="16" height="5" rx="2.5" fill="#3377FF"/>
<rect x="57" y="79" width="16" height="5" rx="2.5" fill="#6A9CFF"/>
<rect x="37" y="88" width="26" height="5" rx="2.5" fill="#6A9CFF"/>
<rect x="81" y="79" width="13" height="5" rx="2.5" fill="#6A9CFF"/>
<rect x="71" y="88" width="13" height="5" rx="2.5" fill="#6A9CFF"/>
</svg>

<svg width="120" height="120" fill="none" xmlns="http://www.w3.org/2000/svg"><path d="M82.938 46.8c-.088 0-.162.03-.235.03.161-.764.234-1.557.234-2.38 0-6.492-5.244-11.75-11.718-11.75-3.604 0-6.782 1.66-8.936 4.23C59.56 31.642 54.124 28 47.781 28c-9.067 0-16.406 7.358-16.406 16.45 0 1.072.117 2.1.308 3.114C26.073 49.414 22 54.658 22 60.9 22 68.684 28.299 75 36.063 75h46.874C90.701 75 97 68.684 97 60.9s-6.299-14.1-14.063-14.1Z" fill="#3FD5FE"/><rect x="37" y="70" width="25" height="5" rx="2.5" fill="#37F"/><rect x="26" y="79" width="25" height="5" rx="2.5" fill="#6A9CFF"/><rect x="68" y="70" width="16" height="5" rx="2.5" fill="#37F"/><rect x="57" y="79" width="16" height="5" rx="2.5" fill="#6A9CFF"/><rect x="37" y="88" width="26" height="5" rx="2.5" fill="#6A9CFF"/><rect x="81" y="79" width="13" height="5" rx="2.5" fill="#6A9CFF"/><rect x="71" y="88" width="13" height="5" rx="2.5" fill="#6A9CFF"/></svg>
